!!!COM: Palestrina, Giovanni Perluigi da
!!!OPR: Missa Te Deum laudamus
!!!OMD: Credo
!!!OTL: qui ex Patre
**kern	**kern	**kern	**kern	**kern	**kern
*Ibass	*Itenor	*Itenor	*Icalto	*Icalto	*Icant
!Bassus	!Tenor 2	!Tenor 1	!Altus 2	!Altus 1	!Cantus
*clefF4	*clefGv2	*clefGv2	*clefG2	*clefG2	*clefG2
*k[]	*k[]	*k[]	*k[]	*k[]	*k[]
*A:aeo	*A:aeo	*A:aeo	*A:aeo	*A:aeo	*A:aeo
*M3/2	*M3/2	*M3/2	*M3/2	*M3/2	*M3/2
=169	=169	=169	=169	=169	=169
2r	1A	1c	1e	2r	2a
2A	.	.	.	2e	2cc
2A	2r	2A	2f#	2c	2cc
=170	=170	=170	=170	=170	=170
1G	1r	1B	1g	1d	1b
2C	2r	2c	2g	2e	2g
=171	=171	=171	=171	=171	=171
2.F	1r	2.A	2.f	2.c	2.a
4F	.	4A	4f	4c	4a
2F	2r	2F	2f	2c	2a
=172	=172	=172	=172	=172	=172
1C	1r	1G	1e	1c	1g
2GG	2r	2G	2d	2B	2g
=173	=173	=173	=173	=173	=173
1D	1r	2A	1d	1A	1f#
.	.	2d	.	.	.
2C	2r	2G	2e	2c	2g
=174	=174	=174	=174	=174	=174
1F	1c	2r	1a	2r	1r
.	.	2A	.	2f	.
2F	2c	2F	2a	2f	2r
=175	=175	=175	=175	=175	=175
2C	2c	2G	2g	2e	1r
2C	2c	2G	2g	2e	.
2E	2G	2r	2e	2B	2r
=176	=176	=176	=176	=176	=176
2.D	2.A	1r	2.f	2.d	1r
4D	4A	.	4f	4d	.
2D	2A	2r	2f	2d	2r
=177	=177	=177	=177	=177	=177
2.C	2.c	2.E	2.e	2.G	2.g
4C	4c	4E	4e	4G	4g
2C	2c	2E	2e	2G	2g
=178	=178	=178	=178	=178	=178
2C	2G	2C	2e	2c	2g
1GG	1G	1D	1d	1B	1g
=179	=179	=179	=179	=179	=179
1C	4G	2C	2e	2c	2g
.	4F	.	.	.	.
.	4E	2r	2r	1e	2r
.	4D	.	.	.	.
2r	2C	2c	2g	.	2cc
=180	=180	=180	=180	=180	=180
1r	1r	2.c	2.g	2.e	2.cc
.	.	4c	4g	4e	4cc
2r	2r	2c	2g	2e	2cc
=181	=181	=181	=181	=181	=181
1r	1r	2A	2f	2c	2cc
.	.	1G	1g	1d	1b
2r	2r	.	.	.	.
=182	=182	=182	=182	=182	=182
1C	1E	2c	2g	2e	2cc
.	.	2r	2e	2r	2g
2AA	2A	2r	2e	2r	2cc
=183	=183	=183	=183	=183	=183
1E	2G	2r	1e	1B	1b
.	2E	2G	.	.	.
2AA	4E	2c	2e	2e	2a
.	4F#	.	.	.	.
=184	=184	=184	=184	=184	=184
1E	4G	1B	1r	1e	1g
.	4A	.	.	.	.
.	2B	.	.	.	.
2AA	2c	2A	2r	2e	2a
=185	=185	=185	=185	=185	=185
4E	2B	1G	2r	2e	2b
4D	.	.	.	.	.
4C	1E	.	2r	2e	2.cc
4BB	.	.	.	.	.
4AA	.	2A	2e	[2c	.
4GG	.	.	.	.	4b
=186	=186	=186	=186	=186	=186
2AA	1.E	2c	2e	4c]	1a
.	.	.	.	4d	.
1E	.	1B	1e	2e	.
.	.	.	.	2B	2g#
*-	*-	*-	*-	*-	*-
!!!CDT: 1525/^1526/-1594/2/2
!!!OCY: Italia
!!!AGN: Mass (Paraphrase)
!!!AST: renaissance, vocal
!!!ASW: Hymn
!!!PWK: Masses, Book 9
!!!RNB: Cadence finals: G,E,D
!!!YOR: Le Opere Complete, v. 25, p. 172
!!!YOO: Rome, Italy: Fratelli Scalera
!!!END: 1992//
!!!EED: John Miller
!!!YEC: Copyright 2000, John Miller
!!!YEN: United States of America
!!!YEM: Rights to all derivative electronic formats reserved.
!!!YEM: Refer to licensing agreement for further details.
!!!YEM: This file must be accompanied by the licensing agreement.
!!!YEM: A copy of the licensing agreement may be found at http://www.music-cog.ohio-state.edu/HumdrumDatabases/Palestrina/license.txt
!!!EMD: converted to Humdrum by Bret Aarden
